img/nf-psyh.svg

<svg width="220" height="213" viewBox="0 0 220 213" fill="none" xmlns="http://www.w3.org/2000/svg">
<path d="M0.684692 212.246C2.7739 208.447 6.76951 205.957 10.974 204.988C15.1786 203.992 19.592 204.359 23.8488 205.145C28.1055 205.931 32.2578 207.137 36.5146 207.896C41.5548 208.761 46.6734 208.945 51.7658 208.473C54.7168 208.185 62.3685 208.08 63.4654 204.49C63.8832 203.154 63.5437 201.686 63.0475 200.35C61.2456 195.397 57.485 191.126 56.806 185.912C56.336 182.217 57.4589 178.522 58.5818 174.959C60.0965 170.137 61.6112 165.342 63.1259 160.52C63.7787 158.45 64.4577 156.328 65.7635 154.625C67.0431 152.948 68.8451 151.768 70.5948 150.615C71.4827 150.039 72.3706 149.462 73.3891 149.174C75.3477 148.624 77.5153 149.751 79.1866 150.72C80.3357 151.402 84.488 152.895 84.723 154.363C84.8014 154.939 84.4619 155.489 83.9657 155.778C83.4695 156.066 82.8689 156.118 82.2943 156.066C81.4848 156.013 80.7013 155.804 79.9701 155.411C79.2128 155.018 78.5338 154.467 77.7503 154.205C76.5751 153.812 75.2433 154.127 74.1726 154.729C73.0757 155.332 72.1878 156.223 71.2999 157.114C74.3031 155.856 78.2987 156.04 80.9103 158.136C81.8243 158.87 85.5849 163.298 82.66 163.534C80.858 163.691 79.3695 160.704 77.3325 160.573C76.6274 160.52 75.9223 160.73 75.2433 160.966C73.3108 161.673 71.4827 162.695 69.9158 164.032C71.9005 163.246 74.6949 161.752 76.8363 162.119C78.8733 162.459 80.7536 163.717 81.7459 165.551C81.9549 165.918 82.1115 166.338 82.1115 166.757C82.0854 167.176 81.8504 167.622 81.4587 167.753C80.9886 167.91 80.4924 167.595 80.0485 167.36C77.8287 166.154 74.6426 166.678 72.3184 167.412C69.968 168.172 67.8527 169.508 65.7635 170.845C68.7928 170.163 71.9528 167.7 75.1127 168.093C76.3401 168.25 81.2759 169.063 80.8058 170.897C80.5707 171.762 79.5 172.024 78.586 172.129C76.3401 172.364 74.0942 172.6 71.8483 172.836C72.7101 171.762 73.9114 170.949 75.2433 170.635C74.6687 173.517 70.647 174.985 68.4795 176.269C71.1693 178.496 71.9005 182.296 72.0834 185.781C72.2662 189.266 72.1095 192.908 73.5719 196.079C74.8777 198.856 77.2803 200.926 79.4217 203.101C81.5631 205.302 83.574 207.949 83.7046 211.015C81.7982 211.513 80.2051 209.547 79.3172 207.765C76.0789 201.293 68.8451 173.963 84.1485 177.317C87.1256 177.972 89.8416 179.466 92.7926 180.199C98.4596 181.64 104.806 180.068 109.141 176.138C108.331 176.871 103.865 176.033 102.769 175.954C100.497 175.745 98.2246 175.404 95.9787 174.932C92.9493 174.277 85.611 173.36 84.5925 169.875C83.9135 167.517 85.5849 164.975 87.7524 163.848C90.3378 162.486 93.8372 162.276 96.6576 161.49C100.679 160.363 104.884 159.865 108.932 158.791C110.603 158.345 112.301 157.848 113.763 156.931C115.852 155.594 116.766 153.131 116.166 150.694C115.8 149.174 114.964 147.838 114.103 146.528C111.099 141.916 107.73 137.566 104.884 132.849C102.037 128.133 99.6348 123.049 98.8252 117.625C98.5902 116.079 98.564 114.297 99.6609 113.171C101.123 111.703 103.63 112.306 105.328 113.459C108.984 115.974 110.943 120.534 110.995 124.988C111.047 129.443 109.402 133.793 107.078 137.592C104.153 142.388 100.026 147.366 95.1691 150.222C92.1658 152.004 88.4575 152.895 85.1148 151.926C82.3988 151.14 75.5305 144.746 80.623 142.754C81.9287 142.23 83.3912 142.073 84.7753 142.283C84.1485 144.431 82.1638 146.423 80.0223 147.026C78.6382 147.419 76.6274 147.628 75.9484 146.056C75.5828 145.218 75.5305 144.248 75.0082 143.514C74.5643 142.885 73.8592 142.492 73.1802 142.152C72.5012 141.811 71.77 141.47 71.2999 140.868C70.8037 140.265 70.6209 139.348 71.091 138.745C72.5273 139.112 74.2248 139.427 75.3738 138.483C75.7133 138.221 75.9745 137.854 76.314 137.645C77.2541 137.042 78.4554 137.461 79.5 137.802C81.6937 138.509 83.9918 138.824 86.29 138.745C85.9243 138.745 84.3574 139.951 83.809 140.16C82.5816 140.632 81.3542 141.025 80.0746 141.208C76.5751 141.706 73.8853 140.396 71.6655 137.671C70.3336 136.046 68.1661 133.373 68.9495 131.172C69.4196 129.836 70.647 128.84 72.005 128.5C73.3891 128.159 74.8515 128.447 76.1051 129.128C76.6796 129.443 77.228 129.915 77.3325 130.543C77.4369 131.277 76.8624 131.985 76.1573 132.273C74.7993 132.823 73.128 132.43 71.77 132.954C70.1247 133.557 68.7667 135.889 66.8081 135.601C64.4839 135.286 64.6144 132.64 64.4577 130.806C63.9354 124.7 63.5176 118.595 63.0475 112.515C62.8386 109.895 62.5775 107.091 60.9061 105.047C59.2347 103.004 55.657 102.375 54.1162 104.497C51.583 107.956 58.6602 112.987 61.1672 114.376C77.6459 123.416 99.5825 110.288 110.681 98.0248C122.12 85.3947 126.612 66.5543 121.441 50.2295C121.78 51.3038 120.083 54.9199 119.822 56.1515C119.352 58.3788 118.986 60.6323 118.777 62.8858C118.333 67.419 118.438 72.0047 119.038 76.5117C120.187 85.0279 123.608 93.151 126.246 101.195C131.417 116.97 142.202 132.64 156.252 141.628C162.65 145.715 169.832 148.388 176.335 152.292C182.837 156.197 188.896 161.752 190.855 169.089C192.813 176.426 189.21 185.571 181.871 187.536C175.473 189.266 168.657 184.995 165.445 179.204C160.561 170.373 162.833 158.45 170.015 151.402C177.197 144.353 188.504 142.204 198.089 145.27C207.673 148.336 215.403 156.144 219.346 165.447" stroke="#292929" stroke-miterlimit="10" stroke-linecap="round" stroke-linejoin="round"/>
<path d="M78.3771 116.996C84.8797 116.21 85.7415 109.633 84.5925 104.235C81.0408 87.622 77.5153 71.0352 73.9636 54.4221C72.1878 46.1156 70.412 37.809 68.6361 29.5287C66.9387 21.5366 64.7711 13.8852 64.6666 5.65725C64.6405 3.823 64.9539 1.5695 66.6775 0.888202C68.6884 0.102095 70.5687 2.19838 71.6916 4.03263C86.6556 28.3233 96.0831 55.4178 107.025 81.7C85.0625 56.9115 43.9313 52.2996 17.0327 71.6117C34.0336 65.7159 51.0607 59.8201 68.0616 53.9504C75.7394 51.3039 82.9733 48.0284 90.9123 46.0108C99.1386 43.9145 107.548 42.5781 116.009 42.0016C116.348 41.9754 116.688 41.9492 117.027 41.9492C109.193 49.4434 99.3736 54.4221 89.6849 59.2174C79.9962 64.0126 70.1247 68.8603 62.1074 76.1711C54.09 83.4557 48.0574 93.7013 48.3447 104.55C48.3186 103.763 53.3588 100.986 54.1162 100.488C56.2315 99.0992 58.3729 97.789 60.5666 96.5575C64.7189 94.2254 69.0279 92.4697 73.2324 90.19C82.7644 85.0279 92.2703 79.892 101.802 74.7299C106.372 77.9791 105.014 86.0236 100.131 88.775C95.2474 91.5264 88.7709 89.6921 84.723 85.814C80.6752 81.9359 78.5599 76.4593 76.993 71.0614C73.4152 58.7457 71.9789 45.8797 67.931 33.7213C63.8832 21.5628 56.5187 9.6926 44.9236 4.32087C66.1813 30.5507 94.255 51.1467 125.593 63.541C128.361 64.6415 131.574 66.2137 131.887 69.1747C132.305 73.2101 127.082 75.2016 123.034 75.3064C113.371 75.5946 103.63 73.1839 95.2213 68.3624C93.2888 67.2619 91.2257 65.611 91.3563 63.4099C91.4869 61.2875 93.6283 59.9249 95.5086 58.9815C107.339 53.0333 120.057 48.8932 133.088 46.7183C132.775 56.3088 120.684 60.5537 111.152 60.0821C99.922 59.5056 89.1104 55.9943 78.1682 53.4002C67.2259 50.806 55.6569 49.129 44.8453 52.221C34.0336 55.313 24.2405 64.3009 23.2742 75.516C22.308 86.7573 33.1196 98.3655 44.0357 95.6141C51.1651 93.8323 55.8659 87.2814 60.7755 81.8311C65.7113 76.3807 72.9451 71.2972 79.8918 73.6817C83.0256 76.8262 81.1453 82.8792 77.0974 84.6873C73.0496 86.4953 68.1138 84.8183 64.9017 81.7787C61.6634 78.7128 59.8092 74.5465 58.0856 70.4325C50.5123 52.4306 44.2969 31.8346 51.6352 13.7542C52.6537 11.2386 54.5862 8.46104 57.2761 8.77548C60.0704 9.08992 61.2456 12.444 61.8201 15.1692C67.5132 41.923 73.1802 68.7031 78.8733 95.4569C79.6828 99.204 80.5185 103.082 82.6861 106.253C84.8536 109.423 88.6664 111.756 92.427 111.022C97.9112 109.921 100.235 103.292 100.34 97.6842C100.497 87.5434 96.6576 79.0797 91.983 70.3539C87.2562 61.5233 81.9287 53.0071 76.0006 44.9102C77.1758 46.5348 81.302 47.8712 83.0517 48.9456C85.6371 50.5178 88.1702 52.1948 90.6251 53.9504C95.4302 57.3569 100.026 61.0778 104.388 65.0608C113.084 73.0529 121.676 80.7829 128.387 90.6093C113.685 89.1681 102.612 76.7214 94.6729 64.2485C89.8938 56.7542 85.5848 48.7359 84.0702 39.9839C82.5555 31.2319 84.1746 21.5628 90.1289 14.9333C95.5347 8.9065 104.257 6.12892 112.144 7.88456C120.031 9.6402 126.742 15.9029 129.093 23.6591C132.853 36.1058 125.358 49.6007 115.095 57.5403C104.832 65.48 92.1136 69.4106 80.2835 74.7299C62.3424 82.8006 45.9682 94.3564 32.3362 108.559C41.0847 112.515 51.348 111.834 60.436 108.716C69.4979 105.598 77.6197 100.252 85.611 94.9066C88.7709 92.7842 92.7926 90.6093 96.1353 92.4173C100.549 94.8018 99.3997 101.589 96.6838 105.807C93.9678 110.052 90.1289 114.481 91.1735 119.407C97.2583 120.822 101.202 113.485 104.884 108.401C112.666 97.7366 128.805 94.3564 140.192 101.012C139.382 95.7452 138.494 90.321 135.647 85.814C132.801 81.307 127.447 77.9791 122.277 79.1583C116.087 80.5995 113.45 87.098 111.23 92.3911C108.383 99.204 103.656 105.44 97.9373 110.079C92.4009 114.559 85.3759 116.027 78.3248 117.049C79.0822 116.918 79.8134 116.787 80.5707 116.682" stroke="#292929" stroke-miterlimit="10" stroke-linecap="round" stroke-linejoin="round"/>
</svg>

<svg width="220" height="213" fill="none" xmlns="http://www.w3.org/2000/svg"><path d="M.685 212.246c2.089-3.799 6.085-6.289 10.289-7.258 4.205-.996 8.618-.629 12.875.157 4.256.786 8.409 1.992 12.666 2.751a58.28 58.28 0 0015.25.577c2.952-.288 10.603-.393 11.7-3.983.418-1.336.079-2.804-.418-4.14-1.801-4.953-5.562-9.224-6.241-14.438-.47-3.695.653-7.39 1.776-10.953 1.514-4.822 3.03-9.617 4.544-14.439.653-2.07 1.332-4.192 2.637-5.895 1.28-1.677 3.082-2.857 4.832-4.01.888-.576 1.776-1.153 2.794-1.441 1.959-.55 4.126.577 5.798 1.546 1.149.682 5.301 2.175 5.536 3.643.078.576-.261 1.126-.757 1.415-.496.288-1.097.34-1.672.288a5.642 5.642 0 01-2.324-.655c-.757-.393-1.436-.944-2.22-1.206-1.175-.393-2.507-.078-3.577.524-1.097.603-1.985 1.494-2.873 2.385 3.003-1.258 6.999-1.074 9.61 1.022.914.734 4.675 5.162 1.75 5.398-1.802.157-3.29-2.83-5.328-2.961-.705-.053-1.41.157-2.089.393-1.932.707-3.76 1.729-5.327 3.066 1.984-.786 4.779-2.28 6.92-1.913 2.037.34 3.918 1.598 4.91 3.432.209.367.366.787.366 1.206-.027.419-.262.865-.653.996-.47.157-.967-.158-1.41-.393-2.22-1.206-5.406-.682-7.73.052-2.351.76-4.466 2.096-6.556 3.433 3.03-.682 6.19-3.145 9.35-2.752 1.227.157 6.163.97 5.693 2.804-.235.865-1.306 1.127-2.22 1.232l-6.738.707c.862-1.074 2.063-1.887 3.395-2.201-.574 2.882-4.596 4.35-6.763 5.634 2.69 2.227 3.42 6.027 3.603 9.512.183 3.485.026 7.127 1.489 10.298 1.306 2.777 3.708 4.847 5.85 7.022 2.141 2.201 4.152 4.848 4.283 7.914-1.907.498-3.5-1.468-4.388-3.25-3.238-6.472-10.472-33.802 4.832-30.448 2.977.655 5.693 2.149 8.644 2.882 5.667 1.441 12.013-.131 16.348-4.061-.81.733-5.276-.105-6.372-.184a59.596 59.596 0 01-6.79-1.022c-3.03-.655-10.368-1.572-11.386-5.057-.68-2.358.992-4.9 3.16-6.027 2.585-1.362 6.084-1.572 8.905-2.358 4.021-1.127 8.226-1.625 12.274-2.699 1.671-.446 3.369-.943 4.831-1.86 2.089-1.337 3.003-3.8 2.403-6.237-.366-1.52-1.202-2.856-2.063-4.166-3.004-4.612-6.373-8.962-9.219-13.679-2.847-4.716-5.25-9.8-6.059-15.224-.235-1.546-.261-3.328.836-4.454 1.462-1.468 3.969-.865 5.667.288 3.656 2.515 5.615 7.075 5.667 11.529.052 4.455-1.593 8.805-3.917 12.604-2.925 4.796-7.052 9.774-11.909 12.63-3.003 1.782-6.712 2.673-10.054 1.704-2.716-.786-9.584-7.18-4.492-9.172a8.024 8.024 0 014.152-.471c-.627 2.148-2.611 4.14-4.753 4.743-1.384.393-3.395.602-4.074-.97-.365-.838-.417-1.808-.94-2.542-.444-.629-1.149-1.022-1.828-1.362-.679-.341-1.41-.682-1.88-1.284-.496-.603-.68-1.52-.209-2.123 1.436.367 3.134.682 4.283-.262.34-.262.6-.629.94-.838.94-.603 2.141-.184 3.186.157a19.904 19.904 0 006.79.943c-.366 0-1.933 1.206-2.481 1.415-1.227.472-2.455.865-3.734 1.048-3.5.498-6.19-.812-8.41-3.537-1.331-1.625-3.499-4.298-2.716-6.499.47-1.336 1.698-2.332 3.056-2.672 1.384-.341 2.847-.053 4.1.628.575.315 1.123.787 1.227 1.415.105.734-.47 1.442-1.175 1.73-1.358.55-3.029.157-4.387.681-1.645.603-3.003 2.935-4.962 2.647-2.324-.315-2.194-2.961-2.35-4.795-.523-6.106-.94-12.211-1.41-18.291-.21-2.62-.47-5.424-2.142-7.468-1.671-2.043-5.249-2.672-6.79-.55-2.533 3.459 4.544 8.49 7.051 9.879 16.479 9.04 38.415-4.088 49.514-16.351 11.439-12.63 15.931-31.47 10.76-47.796.339 1.075-1.358 4.69-1.619 5.922a59.152 59.152 0 00-1.045 6.735 59.48 59.48 0 00.261 13.626c1.149 8.516 4.57 16.639 7.208 24.683 5.171 15.775 15.956 31.445 30.006 40.433 6.398 4.087 13.58 6.76 20.083 10.664 6.502 3.905 12.561 9.46 14.52 16.797 1.958 7.337-1.645 16.482-8.984 18.447-6.398 1.73-13.214-2.541-16.426-8.332-4.884-8.831-2.612-20.754 4.57-27.802 7.182-7.049 18.489-9.198 28.074-6.132 9.584 3.066 17.314 10.874 21.257 20.177" stroke="#292929" stroke-miterlimit="10" stroke-linecap="round" stroke-linejoin="round"/><path d="M78.377 116.996c6.503-.786 7.365-7.363 6.216-12.761-3.552-16.613-7.078-33.2-10.63-49.813-1.775-8.306-3.551-16.613-5.327-24.893-1.697-7.992-3.865-15.644-3.97-23.872-.025-1.834.288-4.088 2.011-4.769 2.011-.786 3.892 1.31 5.015 3.145 14.964 24.29 24.391 51.385 35.333 77.667-21.963-24.789-63.094-29.4-89.992-10.088 17-5.896 34.028-11.792 51.029-17.662 7.677-2.646 14.911-5.922 22.85-7.94a140.298 140.298 0 0125.097-4.008c.339-.027.679-.053 1.018-.053-7.834 7.494-17.653 12.473-27.342 17.268-9.689 4.796-19.56 9.643-27.578 16.954-8.017 7.285-14.05 17.53-13.762 28.379-.026-.787 5.014-3.564 5.771-4.062a108.636 108.636 0 016.45-3.93c4.153-2.333 8.462-4.088 12.666-6.368 9.532-5.162 19.038-10.298 28.57-15.46 4.57 3.25 3.212 11.294-1.671 14.045-4.884 2.751-11.36.917-15.408-2.961s-6.163-9.355-7.73-14.753c-3.578-12.315-5.014-25.181-9.062-37.34-4.048-12.158-11.412-24.028-23.007-29.4 21.257 26.23 49.331 46.826 80.669 59.22 2.768 1.1 5.981 2.673 6.294 5.634.418 4.035-4.805 6.027-8.853 6.131-9.663.289-19.404-2.122-27.813-6.944-1.932-1.1-3.995-2.751-3.865-4.952.13-2.122 2.272-3.485 4.153-4.428a132.288 132.288 0 0137.579-12.264c-.313 9.59-12.404 13.836-21.936 13.364-11.23-.576-22.042-4.088-32.984-6.682-10.942-2.594-22.511-4.271-33.323-1.179-10.811 3.092-20.604 12.08-21.57 23.295-.967 11.241 9.845 22.85 20.76 20.098 7.13-1.782 11.83-8.333 16.74-13.783 4.936-5.45 12.17-10.534 19.117-8.15 3.134 3.145 1.253 9.198-2.795 11.006-4.047 1.808-8.983.131-12.195-2.908-3.239-3.066-5.093-7.233-6.816-11.346-7.574-18.002-13.79-38.598-6.45-56.679 1.018-2.515 2.95-5.293 5.64-4.979 2.794.315 3.97 3.669 4.544 6.394 5.693 26.754 11.36 53.534 17.053 80.288.81 3.747 1.645 7.625 3.813 10.796 2.168 3.17 5.98 5.503 9.741 4.769 5.484-1.101 7.808-7.73 7.913-13.338.157-10.14-3.682-18.604-8.357-27.33A214.072 214.072 0 0076.001 44.91c1.175 1.625 5.301 2.961 7.05 4.036a122.146 122.146 0 017.574 5.004 143.843 143.843 0 0113.763 11.11c8.696 7.993 17.288 15.723 23.999 25.55-14.702-1.442-25.775-13.889-33.714-26.361-4.78-7.495-9.088-15.513-10.603-24.265-1.514-8.752.105-18.421 6.059-25.05 5.406-6.027 14.128-8.805 22.015-7.05 7.887 1.756 14.598 8.019 16.949 15.775 3.76 12.447-3.735 25.942-13.998 33.881-10.263 7.94-22.981 11.87-34.811 17.19a154.554 154.554 0 00-47.948 33.829c8.749 3.956 19.012 3.275 28.1.157 9.062-3.118 17.184-8.464 25.175-13.81 3.16-2.122 7.182-4.297 10.524-2.489 4.414 2.385 3.265 9.172.549 13.39-2.716 4.245-6.555 8.674-5.51 13.6 6.084 1.415 10.028-5.922 13.71-11.006 7.782-10.664 23.921-14.045 35.308-7.389-.81-5.267-1.698-10.691-4.545-15.198-2.846-4.507-8.2-7.835-13.37-6.656-6.19 1.442-8.827 7.94-11.047 13.233-2.847 6.813-7.574 13.049-13.293 17.688-5.536 4.48-12.561 5.948-19.612 6.97.757-.131 1.488-.262 2.246-.367" stroke="#292929" stroke-miterlimit="10" stroke-linecap="round" stroke-linejoin="round"/></svg>
